Flat Remix Light/panel/indicator-keyboard-Wo.svg

<svg xmlns="http://www.w3.org/2000/svg" width="22" height="22" version="1.1">
 <defs>
  <style id="current-color-scheme" type="text/css">
   .ColorScheme-Text { color:#31363b; } .ColorScheme-Highlight { color:#3daee9; }
  </style>
 </defs>
 <rect style="opacity:0" width="22" height="22" x="0" y="0"/>
 <path style="fill:none;stroke:currentColor;stroke-width:1.99999976;stroke-linecap:round;stroke-linejoin:bevel" class="ColorScheme-Text" d="m 11.000003,7.0048001 -4e-6,5.9999999 c 0,1.000449 -4e-6,2.000449 -1.0000064,2.000449 -0.3954481,0 -0.6109379,0.0096 -0.9999911,-4.48e-4 -0.3838564,0.0015 -7.6e-6,4.48e-4 -1.0000063,4.48e-4 -1.0000024,0 -0.9999949,-1 -0.9999949,-2.000449 l 3.8e-6,-5.9999999 m 0,0 -3.8e-6,5.9999999 c 0,1.000449 -3.8e-6,2.000449 -1.0000062,2.000449 -0.3954482,0 -0.610938,0.0096 -0.9999912,-4.48e-4 -0.3838563,0.0015 -7.5e-6,4.48e-4 -1.0000062,4.48e-4 -1.0000025,0 -0.999995,-1 -0.999995,-2.000449 l 3.8e-6,-5.9999999"/>
 <path style="fill:none;stroke:currentColor;stroke-width:1.99999976;stroke-linecap:round;stroke-linejoin:bevel" class="ColorScheme-Text" d="m 17.002904,6.9994204 c 2.399679,0 2.000001,2.000001 2.000001,3.9999986 0,2.000001 0.355578,4.061102 -2.000001,4.000003 -2.348587,0 -1.999997,-2.000002 -1.999997,-4.000003 0,-1.9999976 -0.435451,-3.9999986 1.999997,-3.9999986"/>
</svg>

<svg xmlns="http://www.w3.org/2000/svg" width="12pt" height="12pt" version="1.1" viewBox="0 0 12 12">
 <g>
  <path style="fill:none;stroke-width:2;stroke-linecap:round;stroke-linejoin:bevel;stroke:rgb(19.215686%,21.176471%,23.137255%)" d="M 11 7.007812 L 11 13.007812 C 11 14.007812 11 15.007812 10 15.007812 C 9.601562 15.007812 9.390625 15.015625 9 15.007812 C 8.617188 15.007812 9 15.007812 8 15.007812 C 7 15.007812 7 14.007812 7 13.007812 L 7 7.007812 M 7 7.007812 L 7 13.007812 C 7 14.007812 7 15.007812 6 15.007812 C 5.601562 15.007812 5.390625 15.015625 5 15.007812 C 4.617188 15.007812 5 15.007812 4 15.007812 C 3 15.007812 3 14.007812 3 13.007812 L 3 7.007812" transform="matrix(0.5,0,0,0.5,0.5,0.5)"/>
  <path style="fill:none;stroke-width:2;stroke-linecap:round;stroke-linejoin:bevel;stroke:rgb(19.215686%,21.176471%,23.137255%)" d="M 17 7 C 19.40625 7 19 9 19 11 C 19 13 19.359375 15.0625 17 15 C 14.65625 15 15 13 15 11 C 15 9 14.570312 7 17 7" transform="matrix(0.5,0,0,0.5,0.5,0.5)"/>
 </g>
</svg>
